X:1
T:Title
%%score ( 1 2 ) { 3 | ( 4 5 ) }
L:1/8
Q:1/4=100
M:4/4
K:Ab
V:1 treble nm="Grand Piano, Soprano"
V:2 treble 
V:3 bass nm="Choir Pad, Zvirovići, L. B. Shook, 1883"
V:4 bass 
V:5 bass 
V:1
 [CE]>[CE] [Ec]2- [Ec][FB]AG | FG [EA]6 | [CE]>[CE] [ce]2- [ce][_c=d][=ce][_cd] | [ce][Bd] [Ac]6 | %4
w: By~L.~B.~Shook,~1883 * * * * * *||||
 [CE]>[CE] [Ec]2- [Ec][DB][CA][DB] | [Ec][_Ge] [Fd]6 | [Fd]>[Af] [Ae]2- [Ae][Ac]ed | cB A6 | %8
w: ||||
 z4 z2 .B2 | [B=d][Ac] [GB]>[FA] [EG]4 | z4 z2 .B2 | [EG][FA] [EG]6 | %12
w: ||||
 [EG]>[FA] [GB]2- [GB][Ge] [Ge]2- | [Ge][GB] [B=d]4 [Ac]2 | z4 z2 .B2 | .G2 z2 z4 | z8 |] %17
w: |||||
V:2
 z4 z2 E2 | E2 z2 z4 | x8 | x8 | x8 | x8 | z4 z2 G2 | G2 z2 z4 | [GB]>[GB] [GB]2- [GB][EG]G-[Ge] | %9
 x8 | [EB]>[EB] [=DB]2- [DB][Dc]D-[DF] | x8 | x8 | x8 | [EA]>[Ec] [EB]2- [EB][EG]=D-[DA] | %15
 =D-[DF] E6- | E2 z2 z4 |] %17
V:3
 A,>A, A,2- A,/ z/ D CB, | A,D C6 | A,>A, A,2- A,/ z/ A, A,2 | G,2 A,6 | A,>A, A,2- A,A, A,2 | %5
 A,2 A,6 | D>D C2- CECB, | ED C6 | E>E E2- E[K:bass]B, B,2 | B,2 B,2 B,4 | G,>G, F,2- F,F, B,2 | %11
 B,2 B,6 | B,>B, E2- EB, B,2- | B,[K:treble]E E4 E2 | C>A,[K:bass] B,2- B,B,G,F, | B,A, G,6- | %16
 G,2 z2 z4 |] %17
V:4
 z4 z D, E,2 | z2 A,6 | z8 | E,2 A,,6 | A,,>A,, A,,2- A,,A,, A,,2 | A,,C, D,6 | %6
 D,>D, E,2- E,E, E,2 | E,2 A,,6 | E,>E, E,2- E,E, E,2 | B,,2 B,,2 E,4 | E,>E, B,,2- B,,B,, B,,2 | %11
 B,,2 E,6 | E,>E, E,2- E,E, E,2- | E,E, G,4 A,2 | A,2 G,2- G,B,, B,,2 | B,,2 E,6- | E,2 z2 z4 |] %17
V:5
 x8 | .E,4 z4 | x8 | x8 | x8 | x8 | x8 | x8 | x8 | x8 | x8 | x8 | x8 | x8 | x8 | x8 | x8 |] %17

